X:8456
T:Kelly's, John
M:6/8
L:1/8
K:D Major
e|f2A ABA|BAB d3|cdc Bef|g3 f2e|!
f2A ABA|BAB d3|cdc ABc|d3 d2:|!
f|g3 gfe|f3 fed|B2e efe|d2B Bef|!
g3 gfe|f3 fed|B2e efa|b3 a2:|!
